public/svg/balsamic.svg

<svg width="24" height="24" viewBox="0 0 24 24" fill="none" xmlns="http://www.w3.org/2000/svg">
<g clip-path="url(#clip0)">
<path d="M10.9325 23.9946C9.6022 24.0342 8.27624 23.8241 7.0233 23.3753C3.58853 22.1679 1.8836 19.5814 1.39253 16.1088C0.872835 12.4266 1.40268 8.87741 2.96176 5.49526C3.34576 4.66357 3.86914 3.9168 4.44883 3.20141C5.63037 1.74295 7.28268 1.38756 9.00883 1.1928C9.79991 1.10326 10.5947 1.04972 11.3858 0.969411C11.9341 0.914026 12.5138 1.10141 12.8904 0.378642C13.0814 0.0140263 13.7396 -0.125358 14.1854 0.129411C15.7436 1.01095 17.4485 1.60356 18.8913 2.72603C22.7608 5.7371 24.2304 9.66479 23.4264 14.4353C22.651 19.0433 19.6934 21.7663 15.4436 23.2645C13.9925 23.7786 12.4814 24.0306 10.9316 23.9946H10.9325ZM2.68022 13.1106C2.69591 14.1408 2.75407 15.1709 2.95437 16.1873C3.34576 18.1866 4.1673 20.0134 6.00791 20.9845C8.18822 22.1346 10.5947 22.5417 13.0833 22.3165C15.0494 22.1393 16.819 21.4986 18.2793 20.1509C20.4734 18.1239 21.6411 15.5706 21.9716 12.6269C22.4054 8.77033 20.7596 5.51741 17.5011 3.74049C17.251 3.6048 16.987 3.31403 16.6981 3.46541C15.8922 3.8891 15.2922 3.41556 14.6396 3.09249C14.1411 2.84418 13.6445 2.55895 13.1119 2.41587C11.035 1.85187 9.1076 2.48972 7.18945 3.21341C5.69683 3.77649 4.68699 4.91926 4.07868 6.25587C3.09398 8.40366 2.61523 10.7488 2.6793 13.1106H2.68022Z" fill="#8D8D8D"/>
<path d="M12.3998 17.9762C10.1419 17.9079 8.14531 17.2332 6.63885 15.4498C6.14593 14.8682 5.92993 14.1713 5.86716 13.4218C5.8487 13.2215 5.75454 12.9446 6.02039 12.9021C6.16716 12.879 6.349 13.0747 6.44039 13.2898C6.7727 14.0818 7.22777 14.7122 8.03454 15.1802C9.46624 16.0119 10.9487 16.4402 12.5927 16.4116C14.4112 16.3793 15.9352 15.7046 17.1868 14.3975C17.3872 14.1889 17.5709 13.8639 17.9032 14.0892C18.2336 14.3126 17.9816 14.6209 17.8828 14.871C17.3105 16.323 16.1844 17.1621 14.737 17.6006C13.9801 17.8313 13.2102 18.0279 12.3998 17.9762ZM16.7641 9.98609C16.6441 10.4938 16.5333 11.0716 15.8281 11.0587C15.0961 11.0467 14.9567 10.4892 14.9392 9.89563C14.9179 9.22363 15.3499 8.91163 15.9278 8.92917C16.5093 8.94763 16.8352 9.32886 16.7641 9.98609ZM9.37393 9.9464C9.18839 10.2649 9.31116 10.9036 8.59208 10.8944C7.897 10.8852 7.5167 10.5344 7.49177 9.82917C7.47054 9.22917 7.69485 8.70763 8.34931 8.79348C8.86162 8.86086 9.34162 9.20886 9.37393 9.94732V9.9464Z" fill="#8D8D8D"/>
</g>
<defs>
<clipPath id="clip0">
<rect width="24" height="24" fill="white"/>
</clipPath>
</defs>
</svg>

<svg xmlns="http://www.w3.org/2000/svg" width="24" height="24" fill="none" xmlns:v="https://vecta.io/nano"><g clip-path="url(#A)" fill="#8d8d8d"><path d="M10.933 23.995a10.64 10.64 0 0 1-3.909-.619c-3.435-1.207-5.14-3.794-5.631-7.267A18.66 18.66 0 0 1 2.962 5.495c.384-.832.907-1.578 1.487-2.294 1.182-1.458 2.834-1.814 4.56-2.009l2.377-.223c.548-.055 1.128.132 1.505-.591.191-.365.849-.504 1.295-.249 1.558.882 3.263 1.474 4.706 2.597 3.869 3.011 5.339 6.939 4.535 11.709-.775 4.608-3.733 7.331-7.983 8.829-1.451.514-2.962.766-4.512.73h.001zM2.68 13.111c.016 1.03.074 2.06.274 3.077.391 1.999 1.213 3.826 3.054 4.797 2.18 1.15 4.587 1.557 7.075 1.332 1.966-.177 3.736-.818 5.196-2.166 2.194-2.027 3.362-4.58 3.692-7.524.434-3.857-1.212-7.109-4.47-8.886-.25-.136-.514-.426-.803-.275-.806.424-1.406-.05-2.059-.373-.498-.248-.995-.534-1.528-.677-2.077-.564-4.004.074-5.922.798-1.493.563-2.502 1.706-3.111 3.042a15.44 15.44 0 0 0-1.399 6.855h.001zm9.72 4.865c-2.258-.068-4.254-.743-5.761-2.526-.493-.582-.709-1.278-.772-2.028-.018-.2-.113-.477.153-.52.147-.023.329.173.42.388.332.792.787 1.422 1.594 1.89 1.432.832 2.914 1.26 4.558 1.231a6.27 6.27 0 0 0 4.594-2.014c.2-.209.384-.534.716-.308s.078.532-.02.782c-.572 1.452-1.698 2.291-3.146 2.73-.757.231-1.527.427-2.337.376zm4.364-7.99c-.12.508-.231 1.086-.936 1.073-.732-.012-.871-.569-.889-1.163-.021-.672.411-.984.989-.966s.907.4.836 1.057zm-7.39-.04c-.186.319-.063.957-.782.948-.695-.009-1.075-.36-1.1-1.065-.021-.6.203-1.122.858-1.036.512.067.992.415 1.025 1.154v-.001z"/></g><defs><clipPath id="A"><path fill="#fff" d="M0 0h24v24H0z"/></clipPath></defs></svg>
